packages/ui-icons/svg/Solid/settings-2.svg

<svg viewBox="0 0 1920 1920" version="1.1" xmlns="http://www.w3.org/2000/svg">
    <path d="M1703.53412,960 C1703.53412,918.211765 1699.69412,875.52 1691.90118,832.828235 L1902.08471,650.654118 L1702.63059,309.797647 L1437.44471,398.230588 C1370.47059,342.663529 1294.12235,298.842353 1213.59529,269.816471 L1158.93176,0 L761.152941,0 L706.489412,269.703529 C625.058824,298.842353 550.065882,341.985882 482.527059,398.117647 L217.454118,309.797647 L18,650.654118 L228.183529,832.828235 C220.390588,875.52 216.550588,918.211765 216.550588,960 C216.550588,1001.78824 220.390588,1044.48 228.183529,1087.17176 L18,1269.34588 L217.454118,1610.20235 L482.64,1521.76941 C549.614118,1577.33647 625.962353,1621.15765 706.489412,1650.18353 L761.152941,1920 L1158.93176,1920 L1213.59529,1650.29647 C1294.91294,1621.15765 1370.01882,1578.01412 1437.55765,1521.88235 L1702.63059,1610.31529 L1902.08471,1269.45882 L1691.90118,1087.28471 C1699.69412,1044.48 1703.53412,1001.78824 1703.53412,960 M960.042353,1355.29412 C742.065882,1355.29412 564.748235,1177.97647 564.748235,960 C564.748235,742.023529 742.065882,564.705882 960.042353,564.705882 C1178.01882,564.705882 1355.33647,742.023529 1355.33647,960 C1355.33647,1177.97647 1178.01882,1355.29412 960.042353,1355.29412" stroke="none" stroke-width="1" fill-rule="evenodd"/>
</svg>

<svg viewBox="0 0 1920 1920" xmlns="http://www.w3.org/2000/svg">
    <path d="M1703.534 960c0-41.788-3.84-84.48-11.633-127.172l210.184-182.174-199.454-340.856-265.186 88.433c-66.974-55.567-143.323-99.389-223.85-128.415L1158.932 0h-397.78L706.49 269.704c-81.43 29.138-156.423 72.282-223.962 128.414l-265.073-88.32L18 650.654l210.184 182.174C220.39 875.52 216.55 918.212 216.55 960s3.84 84.48 11.633 127.172L18 1269.346l199.454 340.856 265.186-88.433c66.974 55.567 143.322 99.389 223.85 128.415L761.152 1920h397.779l54.663-269.704c81.318-29.138 156.424-72.282 223.963-128.414l265.073 88.433 199.454-340.856-210.184-182.174c7.793-42.805 11.633-85.497 11.633-127.285m-743.492 395.294c-217.976 0-395.294-177.318-395.294-395.294 0-217.976 177.318-395.294 395.294-395.294 217.977 0 395.294 177.318 395.294 395.294 0 217.976-177.317 395.294-395.294 395.294" fill-rule="evenodd"/>
</svg>
